dist/img/logo-mini.svg

<svg width="55" height="19" viewBox="0 0 55 19" fill="none" xmlns="http://www.w3.org/2000/svg">
<path d="M12.4414 6.11719C12.168 4.9375 11.5 4.11328 10.4375 3.64453C9.84375 3.38672 9.18359 3.25781 8.45703 3.25781C7.06641 3.25781 5.92188 3.78516 5.02344 4.83984C4.13281 5.88672 3.6875 7.46484 3.6875 9.57422C3.6875 11.6992 4.17188 13.2031 5.14062 14.0859C6.10938 14.9688 7.21094 15.4102 8.44531 15.4102C9.65625 15.4102 10.6484 15.0625 11.4219 14.3672C12.1953 13.6641 12.6719 12.7461 12.8516 11.6133H8.85547V8.73047H16.0508V18H13.6602L13.2969 15.8438C12.6016 16.6641 11.9766 17.2422 11.4219 17.5781C10.4688 18.1641 9.29688 18.457 7.90625 18.457C5.61719 18.457 3.74219 17.6641 2.28125 16.0781C0.757812 14.4844 -0.00390625 12.3047 -0.00390625 9.53906C-0.00390625 6.74219 0.765625 4.5 2.30469 2.8125C3.84375 1.125 5.87891 0.28125 8.41016 0.28125C10.6055 0.28125 12.3672 0.839844 13.6953 1.95703C15.0312 3.06641 15.7969 4.45312 15.9922 6.11719H12.4414ZM26.1758 4.92188C26.2383 4.92188 26.2891 4.92578 26.3281 4.93359C26.375 4.93359 26.4727 4.9375 26.6211 4.94531V8.36719C26.4102 8.34375 26.2227 8.32812 26.0586 8.32031C25.8945 8.3125 25.7617 8.30859 25.6602 8.30859C24.3164 8.30859 23.4141 8.74609 22.9531 9.62109C22.6953 10.1133 22.5664 10.8711 22.5664 11.8945V18H19.2031V5.22656H22.3906V7.45312C22.9062 6.60156 23.3555 6.01953 23.7383 5.70703C24.3633 5.18359 25.1758 4.92188 26.1758 4.92188ZM34.3203 15.6445C35.2969 15.6445 36.0469 15.2969 36.5703 14.6016C37.0938 13.9062 37.3555 12.918 37.3555 11.6367C37.3555 10.3555 37.0938 9.37109 36.5703 8.68359C36.0469 7.98828 35.2969 7.64062 34.3203 7.64062C33.3438 7.64062 32.5898 7.98828 32.0586 8.68359C31.5352 9.37109 31.2734 10.3555 31.2734 11.6367C31.2734 12.918 31.5352 13.9062 32.0586 14.6016C32.5898 15.2969 33.3438 15.6445 34.3203 15.6445ZM40.8594 11.6367C40.8594 13.5117 40.3203 15.1172 39.2422 16.4531C38.1641 17.7812 36.5273 18.4453 34.332 18.4453C32.1367 18.4453 30.5 17.7812 29.4219 16.4531C28.3438 15.1172 27.8047 13.5117 27.8047 11.6367C27.8047 9.79297 28.3438 8.19531 29.4219 6.84375C30.5 5.49219 32.1367 4.81641 34.332 4.81641C36.5273 4.81641 38.1641 5.49219 39.2422 6.84375C40.3203 8.19531 40.8594 9.79297 40.8594 11.6367ZM43.2266 0.785156H46.5078V10.0898L50.668 5.28516H54.8047L50.3398 10.1719L54.9805 18H50.9492L47.8906 12.5391L46.5078 13.9805V18H43.2266V0.785156Z" fill="black"/>
</svg>

<svg width="55" height="19" fill="none" xmlns="http://www.w3.org/2000/svg"><path d="M12.441 6.117c-.273-1.18-.941-2.004-2.004-2.472-.593-.258-1.253-.387-1.98-.387-1.39 0-2.535.527-3.434 1.582-.89 1.047-1.335 2.625-1.335 4.734 0 2.125.484 3.63 1.453 4.512.968.883 2.07 1.324 3.304 1.324 1.211 0 2.203-.348 2.977-1.043.773-.703 1.25-1.62 1.43-2.754H8.855V8.73h7.196V18h-2.39l-.364-2.156c-.695.82-1.32 1.398-1.875 1.734-.953.586-2.125.879-3.516.879-2.289 0-4.164-.793-5.625-2.379C.758 14.484-.004 12.305-.004 9.54c0-2.797.77-5.039 2.309-6.726C3.844 1.125 5.879.28 8.41.28c2.195 0 3.957.559 5.285 1.676 1.336 1.11 2.102 2.496 2.297 4.16h-3.55zm13.735-1.195c.062 0 .113.004.152.012.047 0 .145.003.293.011v3.422a9.05 9.05 0 00-.96-.058c-1.345 0-2.247.437-2.708 1.312-.258.492-.387 1.25-.387 2.274V18h-3.363V5.227h3.188v2.226c.515-.851.965-1.433 1.347-1.746.625-.523 1.438-.785 2.438-.785zm8.144 10.723c.977 0 1.727-.348 2.25-1.043.524-.696.785-1.684.785-2.965 0-1.282-.261-2.266-.785-2.953-.523-.696-1.273-1.043-2.25-1.043-.976 0-1.73.347-2.261 1.043-.524.687-.786 1.671-.786 2.953 0 1.281.262 2.27.786 2.965.53.695 1.285 1.043 2.261 1.043zm6.54-4.008c0 1.875-.54 3.48-1.618 4.816-1.078 1.328-2.715 1.992-4.91 1.992-2.195 0-3.832-.664-4.91-1.992-1.078-1.336-1.617-2.941-1.617-4.816 0-1.844.539-3.442 1.617-4.793 1.078-1.352 2.715-2.028 4.91-2.028 2.195 0 3.832.676 4.91 2.028 1.078 1.351 1.617 2.949 1.617 4.793zM43.226.785h3.28v9.305l4.161-4.805h4.137l-4.465 4.887L54.98 18h-4.03l-3.06-5.46-1.382 1.44V18h-3.281V.785z" fill="#000"/></svg>
